!!!OTL: 7a. Der Liebes-Apfel.
!!!ODT: 1840
!!!ARE: Europa, Mitteleuropa, Deutschland
!!!SCT: E0007
!!!TXL: @@DE
!!!YEM: Copyright 1995, estate of Helmut Schaffrath.
**kern	**text
*ICvox	*
*M2/4	*
*k[f#c#g#]	*
*A:	*
!LO:TX:a:t=Mäßig.	!
!LO:TX:a:t=Schleſiſch 1840.	!
{8e	Es
=1	=1
8e	ſtand
8a	ein
8a	Bäumlein
8cc#	im
=2	=2
8cc#	tie-
8b	-fen
4b}	Thal
=3	=3
{16a	[al-
16b/	-le-
16cc#	-wei-
16dd	-le
8ee	bei
8cc#	der
=4	=4
4b	Nacht],
8r}	.
{8a	es
=5	=5
8a	ſtand
8cc#	ein
8cc#	Bäumlein
8ee	im
=6	=6
(8ee	tie-
8dd)	-fen
8dd}	Thal,
{8cc#	war
=7	=7
8cc#	o-
8cc#	-ben
8ee	breit
8cc#	und
=8	=8
8b/	un-
8a	-ten
4b/}	ſchmal.
=9	=9
{8.a	[Ei-
16g#	-ne
8a	Weil'
8cc#	und
=10	=10
8.b/	al-
16a	-le
8b}	Weil',
{8ee	und
=11	=11
16cc#	al-
16b	-le
16a	Wei-
16b/	-le
8cc#	bei
8b	der
=12	=12
4a	Nacht.]
8r}	.
==	==
!!!AGN: Sage, Maerchen -, Zauber - Lied, Ballade ?
!!!ONB: ESAC (Essen Associative Code) Database: ERK1
!!!AMT: simple duple
!!!AIN: vox
!!!EED: Helmut Schaffrath
!!!EEV: 1.0
!!!GTL: Nachtklaenge der Goettersage (Zaubermaeren)
!!!URL-scan: https://rosdok.uni-rostock.de/mcrviewer/recordIdentifier/rosdok_ppn745146120/iview2/phys_0088.iview2?x=-4.404412318552431&y=1811.9940604669973&scale=0.645690413860662&rotation=0&layout=singlePageLayout&logicalDiv=log_0009
!!!ENC: Anna Maria Matuszewska
!!!EEV: 2024/22/11
*-	*-
